X:3549
T:Lass O' Dallogill ?
O:england
M:6/8
I:speed 240
P:A
ede  G2 G | A2 A G3  | ede  G2 G | A2 B c3 |\
ede  G2 G | A2 A G3  | ede  G2 G | A2 B c2 ||
P:B
d |\
e2 c d2 B | c2 c BAG | e2 c d2 d | d2 f g3 |\
a2 f g2 e | f2 d e3  | ede  G2 G | A2 B c3 ||
T:The Oyster Girl
K:G
I:speed 240
P:C
ded  B2 d | c2 B A2 F | GAG  G2 B | d3 A2 d |\
ded  B2 g | f2 e c2 e | ded  c2 A | G3 G3   ||
P:D
B3-BcB    | e3   e3   | A3-Ace    | d3 d2 d |\
ded  B2 g | f2 e c2 e | ded  c2 A | G3 G3   ||
T:The Keel Row
K:D
M:4/4
I:speed 320
P:E
G2 |\
F4    D2 F2 | G4 E2 G2 | F4    D2 F2 | E2 F2 G2 E2 |\
F4    D2 F2 | G4 E2 G2 | F2 A2 G2 E2 | D6       E2 ||
P:F
F2 A2 d2 c2 | B4 A2 G2 | F2 AF d2 F2 | G2 F2 E4    |\
D2 FA d2 A2 | B4 A2 G2 | F2 A2 G2 E2 | D6          ||
M:4/4


